Images/footer-social-icon-linkedin.svg

<svg width="30" height="31" viewBox="0 0 30 31" fill="none" xmlns="http://www.w3.org/2000/svg">
<path d="M27.5887 0.259766H2.41125C1.08 0.259766 0 1.33977 0 2.67102V27.8485C0 29.1798 1.08 30.2598 2.41125 30.2598H27.5887C28.92 30.2598 30 29.1798 30 27.8485V2.67102C30 1.33977 28.92 0.259766 27.5887 0.259766ZM27.5887 27.8598C10.7963 27.856 2.4 27.8523 2.4 27.8485C2.40375 11.056 2.4075 2.65977 2.41125 2.65977C19.2038 2.66352 27.6 2.66727 27.6 2.67102C27.5962 19.4635 27.5925 27.8598 27.5887 27.8598ZM4.4475 11.506H8.89875V25.8235H4.4475V11.506ZM6.675 9.54852C8.09625 9.54852 9.255 8.39352 9.255 6.96852C9.255 6.6297 9.18827 6.29421 9.05861 5.98119C8.92895 5.66817 8.73891 5.38376 8.49934 5.14418C8.25976 4.9046 7.97534 4.71456 7.66232 4.58491C7.3493 4.45525 7.01381 4.38852 6.675 4.38852C6.33619 4.38852 6.0007 4.45525 5.68768 4.58491C5.37466 4.71456 5.09024 4.9046 4.85067 5.14418C4.61109 5.38376 4.42105 5.66817 4.29139 5.98119C4.16173 6.29421 4.095 6.6297 4.095 6.96852C4.09125 8.39352 5.24625 9.54852 6.675 9.54852ZM16.1362 18.7398C16.1362 16.8723 16.4925 15.0648 18.8063 15.0648C21.0863 15.0648 21.12 17.1985 21.12 18.8598V25.8235H25.5675V17.971C25.5675 14.116 24.735 11.1498 20.2313 11.1498C18.0675 11.1498 16.6163 12.3385 16.02 13.4635H15.96V11.506H11.6888V25.8235H16.1362V18.7398Z" fill="white" fill-opacity="0.9"/>
</svg>

<svg xmlns="http://www.w3.org/2000/svg" width="30" height="31" fill="none" xmlns:v="https://vecta.io/nano"><path d="M27.589.26H2.411A2.41 2.41 0 0 0 0 2.671v25.177c0 1.331 1.08 2.411 2.411 2.411h25.177c1.331 0 2.411-1.08 2.411-2.411V2.671C30 1.34 28.92.26 27.589.26zm0 27.6L2.4 27.849 2.411 2.66l25.189.011-.011 25.189zM4.448 11.506h4.451v14.317H4.448V11.506zm2.228-1.957c1.421 0 2.58-1.155 2.58-2.58a2.58 2.58 0 0 0-.756-1.824 2.58 2.58 0 0 0-1.824-.756 2.58 2.58 0 0 0-1.824.756 2.58 2.58 0 0 0-.756 1.824c-.004 1.425 1.151 2.58 2.58 2.58zm9.461 9.191c0-1.867.356-3.675 2.67-3.675 2.28 0 2.314 2.134 2.314 3.795v6.964h4.447v-7.852c0-3.855-.832-6.821-5.336-6.821-2.164 0-3.615 1.189-4.211 2.314h-.06v-1.957h-4.271v14.317h4.447V18.74z" fill="#fff" fill-opacity=".9"/></svg>
